X: 33715
T: Rapide Du Joual Blanc
R: reel
M: 4/4
K: Eminor
^D2|EEB,E GGEG|BBGB e2ef|gfeg fedf|edB^c dBAF|
EEB,E GGEG|BBGB e2ef|gfeg fedf|eagf e2:|
|:ef|geBe geBe|gece gece|afdB ABdf|afdB A2ef|
geBe geBe|gece gece|afdB ABdf|afdf e2:|

